X: 100
T: Etude No. 2	 Op. 10
C: Fryderyk Chopin
%%abc-version 2.0
%%abcx-abcm2ps-target-version 5.9.1 (29 Sep 2008)
%%abc-creator hum2abc beta
%%abcx-conversion-date 2021/10/03 11:24:05
%%abc-edited-by Mateusz Mrugas
%%abc-edited-by Jędrzej Mróz
%%abc-edited-by Emilia Ziętek
%%abcx-initial-encoding-date 2018-09-11
%%humdrum-veritas 218478133
%%humdrum-veritas-data 3864198984
%%linebreak <none>
%%barnumbers 0
L: 1/16
M: C
N: Derived from 010-1b-Sm-002.krn
P: ETUDES Pour le Piano
Q: "Allegro." 1/4=144
%%staves {1 2}
V: 1 clef=treble
V: 2 clef=bass
K: C
[V:1] A^ABc ^cd^de f^fg^g a^ab=c' & [E2C2]< x2 [=A2E2]< x2 [=d2A2]< x2 [=fd] x3 | 
[V:2] .A,,2 z2 .[=C2A,2E,2] z2 .A,,2 z2 .[D2A,2F,2] z2 | 
[V:1] ^c'd'^d'e' f'e'd'=d' ^c'=c'b_b a^g=ba & [a2e2]< x2 [=c'2a2]< x2 [a2e2]< x2 [e=c] x3 | 
[V:2] .[A,,2A,,,2] z2 .[C2A,2E,2] z2 .[E2=C2A,2] z2z4 | 
[V:1] ^g=g^f=f e^dfe ^d=d^c=c Bcdc & [e2B2]< x2 [B2^G2]< x2 [c2A2]< x2 [AE] x3 | 
[V:2] .E,,2 z2 .[D2B,2E,2] z2 .A,,2 z2 .[C2A,2E,2] z2 | 
[V:1] BcBc BcBc Be^d=d ^c=cB_B & [^G2E2]< x2 [A2^D2]< x2 [G2E2]< x2 [G=D] x3 | 
[V:2] .[B,2E,2] z2!accent![B,4F,4][B,2E,2] z2z4 | 
[V:1] A^ABc ^cd^de f^fg^g a^abc' & [E2C2]< x2 [=A2E2]< x2 [=d2A2]< x2 [=fd] x3 | 
[V:2] .A,,2 z2 .[=C2A,2E,2] z2 .A,,2 z2 .[D2A,2F,2] z2 | 
[V:1] ^c'd'^d'e' f'e'd'=d' ^c'=c'b_b a^g=ba & [a2e2]< x2 [=c'2a2]< x2 [a2e2]< x2 [e=c] x3 | 
[V:2] [A,,2A,,,2] z2 .[=C2A,2E,2] z2 .[E2C2A,2] z2z4 | 
[V:1] =g^ga^a bc'ba =a^g=g^f ^efgf & [e2B2]< x2 [=g2e2]< x2 [^f2^d2]< x2 [dA] x3 | 
[V:2] .B,,2 z2 .[G2E2B,2] z2 .B,,2 z2 .[B2^F2B,2] z2 | 
[V:1] =ef^de =de^cd =cdBc Bc^AB & [B2^G2]< x2 [A2F2]< x2 [A2E2]< x2 [GD] x3 | 
[V:2] .[E4E,4][E,4E,,4]z4[E,4E,,4] | 
[V:1] =A^ABc ^cd^de f^fg^g a^ab=c' & [E2C2]< x2 [=A2E2]< x2 [=d2A2]< x2 [=fd] x3 | 
[V:2] .A,,2 z2 .[=C2A,2E,2] z2 .A,,2 z2 .[D2A,2F,2] z2 | 
[V:1] ^c'd'^d'e' f'e'd'=d' ^c'=c'b_b a^g=ba & [a2e2]< x2 [=c'2a2]< x2 [a2e2]< x2 [e=c] x3 | 
[V:2] .[A,,2A,,,2] z2 .[=C2A,2E,2] z2 .[E2C2A,2] z2z4 | 
[V:1] ^g=g^f=f e^dfe ^d=d^c=c Bcdc & [e2B2]< x2 [B2^G2]< x2 [c2A2]< x2 [AE] x3 | 
[V:2] .E,,2 z2 .[D2B,2E,2] z2 .A,,2 z2 .[C2A,2E,2] z2 | 
[V:1] BcBc BcBc Be^d=d ^c=cB_B & [^G2E2]< x2 [A2^D2]< x2 [G2E2]< x2 [G=D] x3 | 
[V:2] [B,2E,2] z2[B,4F,4][B,2E,2] z2z4 | 
[V:1] A^A=Bc ^cd^de f^fg^g a^ab=c' & [E2C2]< x2 [=A2E2]< x2 [=d2A2]< x2 [=fd] x3 | 
[V:2] .A,,2 z2 .[=C2A,2E,2] z2 .A,,2 z2 .[D2A,2F,2] z2 | 
[V:1] ^c'd'^d'e' f'e'd'=d' ^c'=c'b_b a^g=ba & [a2e2]< x2 [=c'2a2]< x2 [a2e2]< x2 [e=c] x3 | 
[V:2] [A,,2A,,,2] z2 [C2A,2E,2] z2 [E2=C2A,2] z2z4 | 
[V:1] _b=bc'^c' d'^d'e'f' e'f'^f'g' ^g'a'^a'b' & [f2d2]< x2 [_b2f2]< x2 [=d'2^g2]< x2 d' x3 | 
[V:2] .[D,2D,,2] z2 .[D2_B,2F,2D,2] z2 .[E,2E,,2] z2 .[D2=B,2E,2] z2 | 
[V:1] a'^g'=g'^f' =f'e'_e'd' ^c'=c'b_b a^g=g^f & [f'2c'2]< x2 [c'2a2]< x2 [a2e2]< x2 [_e=c] x3 | 
[V:2] .[F,2F,,2] z2 .[F2C2A,2] z2 .[=C,2=C,,2] z2 .[E2A,2E,2] z2 | 
[V:1] =fe_ed ^cdfd =B=cec ^ABeB & [d2_B2]< x2 [B2F2]< x2 [A2E2]< x2 [^GD] x3 | 
[V:2] D,,2 z2[D4_B,4F,4D,4][C4A,4E,4]!accent!E,4 | 
[V:1] =A^ABc ^cd^de a^g=g^f =fe_e=d & [E2C2]< x2 [^G2E2]< x2 [=c2=A2]< x2x4 | 
[V:2] [A,4A,,4][E,4E,,4][A,,4A,,,4]z4 | 
[V:1] _dc=Bc ^cd^de f^fg^g ae=f=d & [_B2E2]< x2 [_B2E2]< x2 A2< x2 =c x3 | 
[V:2] .[C,2C,,2] z2 .[C2G,2C,2] z2 .F,,2 z2 .[C2A,2C,2] z2 | 
[V:1] _dc=Bc ^c=d^de f^fg_a g^f=fe & _B2< x2 [_B2E2]< x2 [_A2F2]< x2 =B x3 | 
[V:2] .C,,2 z2 .[C2G,2C,2] z2 ._D,,2 z2 .[=B,2_A,2_D,2] z2 | 
[V:1] _ed^cd e=ef^f g^ga_b af=g_e & c2< x2 [=c2^F2]< x2 _B2< x2 d x3 | 
[V:2] .=D,,2 z2 .[C2A,2D,2] z2 .G,,2 z2 .[_B,2G,2D,2] z2 | 
[V:1] d_e^cd e=ef^f g^ga_b ag=g^f & c2< x2 [=c2^F2]< x2 [_B2G2]< x2 ^c x3 | 
[V:2] .D,,2 z2 .[C2A,2D,2] z2 ._E,,2 z2 .[^C2_B,2_E,2] z2 | 
[V:1] =fe^de f^fg^g a^abc' b_b=a^g & d2< x2 [=d2^G2]< x2 c2< x2 e x3 | 
[V:2] .=E,,2 z2 .[D2=B,2E,2] z2 .A,,2 z2 .[E2C2A,2E,2] z2 | 
[V:1] =g^f=fe f^fg^g a^abc' ^c'd'^d'e' & d2< x2 [d2^G2]< x2 c2< x2 [=ae] x3 | 
[V:2] .E,,2 z2 .[D2B,2E,2] z2[A,4A,,4][G,4G,,4] | 
[V:1] f'e'_e'd' ^c'=c'b_b a^g=g^f =fe^de & a2< x2 [a2f2]< x2 [f2d2]< x2 [d^G] x3 | 
[V:2] [F,4F,,4]!accent![B,8B,,8][E4E,4] | 
[V:1] _e'd'^c'=c' b_ba^g =g^f=fe _ed^cd & =g2< x2 [g2_e2]< x2 [e2c2]< x2 [c^F] x3 | 
[V:2] .[_E,4_E,,4]!accent![A,8A,,8][D4D,4] | 
[V:1] d'^c'=c'=b _ba_ag ^fg^g=a _b=bc'b & [_b2g2]< x2 [g2^c2]< x2 [d2A2]< x2 [=f=c] x3 | 
[V:2] [G,4G,,4][_E4_E,4][D4D,4][=A,4=A,,4] | 
[V:1] d'c'_ba _ag^f=f ef^fg ^g=a_ba & [a2f2]< x2 [f2=B2]< x2 [c2G2]< x2 [_e_B] x3 | 
[V:2] [F,4F,,4][_D4_D,4][C4C,4][G,4G,,4] | 
[V:1] c'_ba_a g^f=f=e _ed_dc _B=A^G=G & [g2_e2]< x2 [e2_B2]< x2 [B2G2]< x2 [G^C] x3 | 
[V:2] [_E,2_E,,2] z2[_E8E,8][E,4E,,4] | 
[V:1] ^FG^GA _BA^G=G FG^GA BA^G=G & [D2A,2]< x2 [=G2^C2]< x2 [D2A,2]< x2 [=GC] x3 | 
[V:2] [D,2D,,2] z2[A,,4_E,,4][D,4D,,4][A,,4E,,4] | 
[V:1] ^FG^GA cB_BA GA^A=B cB_BA & [D2A,2]< x2 ^D2< x2 [E2B,2]< x2 [=AD] x3 | 
[V:2] [D,4D,,4][=B,,4=F,,4][E,4E,,4][B,,4F,,4] | 
[V:1] ^G2 z2 e'f'd'e' c'd'bc' ab=ga & [E2B,2]< x2 [b2^g2]< x2 [a2e2]< x2 [ec] x3 | 
[V:2] [E,16E,,16]- | 
[V:1] fgef- d'e'c'd' bc'ab ^gaf=g & [c2A2]< x2 [a2f2]< x2 [f2d2]< x2 [dB] x3 | 
[V:2] [E,16E,,16]- | 
[V:1] ef^de- c'=d'bc' ab=ga fgef & [B2^G2]< x2 [a2e2]< x2 [e2c2]< x2 [cA] x3 | 
[V:2] [E,16E,,16]- | 
[V:1] decd BcAB ^GF^DE F^FG^G & [A2F2]< x2 [F2D2]< x2 [D2B,2]< x2x4 | 
[V:2] [E,16E,,16] | 
[V:1] A^ABc ^cd^de f^fg^g a^ab=c' & [E2C2]< x2 [=A2E2]< x2 [=d2A2]< x2 [=fd] x3 | 
[V:2] .A,,2 z2 .[=C2A,2E,2] z2 .A,,2 z2 .[D2A,2F,2] z2 | 
[V:1] ^c'd'^d'e' f'e'd'=d' ^c'=c'b_b =a^g=ba & [a2e2]< x2 [=c'2a2]< x2 [a2e2]< x2 [e=c] x3 | 
[V:2] .A,,2 z2 .[C2A,2E,2] z2 .[E2=C2A,2] z2z4 | 
[V:1] ^g=g^f=f e^dfe _e=d^c=c Bc=dc & [e2B2]< x2 [B2^G2]< x2 [c2A2]< x2 [AE] x3 | 
[V:2] .E,,2 z2 .[D2B,2E,2] z2 .A,,2 z2 .[C2A,2E,2] z2 | 
[V:1] BcBc BcBc Be^d=d ^c=cB_B & [^G2E2]< x2 [A2^D2]< x2 [G2E2]< x2 [G=D] x3 | 
[V:2] [B,2E,2] z2!accent![B,4F,4][B,2E,2] z2z4 | 
[V:1] A^ABc ^cd^de f^fg^g a^abc' & [E2C2]< x2 [=A2E2]< x2 [=d2A2]< x2 [=fd] x3 | 
[V:2] .A,,2 z2 .[=C2A,2E,2] z2 .A,,2 z2 .[D2A,2F,2] z2 | 
[V:1] ^c'd'^d'e' f'e'_e'=d' ^c'=c'b_b a^g=ba & [a2e2]< x2 [=c'2a2]< x2 [a2e2]< x2 [e=c] x3 | 
[V:2] .[A,,2A,,,2] z2 .[C2A,2E,2] z2 .[E2=C2A,2] z2z4 | 
[V:1] _b=bc'^c' =d'=De'f' e'f'^f'g' ^g'a'^a'b' & [f2d2]< x2 [_b2f2]< x2 [=d'2^g2]< x2 d' x3 | 
[V:2] .[D,2D,,2] z2 .[D2_B,2F,2D,2] z2 .[E,2E,,2] z2 .[D2=B,2E,2] z2 | 
[V:1] a'^g'=g'^f' =f'e'_e'd' ^c'=c'b_b a^g=g^f & c'2< x2 [c'2a2]< x2 [a2=e2]< x2 [e=c] x3 | 
[V:2] .[F,2F,,2] z2 .[F2C2A,2] z2 .[C,2C,,2] z2 .[E2A,2E,2] z2 | 
[V:1] =fe_ed ^cdfd =B=c=ec ^ABeB & [d2_B2]< x2 [_B2F2]< x2 [A2E2]< x2 [^GD] x3 | 
[V:2] .[D,2D,,2] z2[D4_B,4F,4D,4][C4A,4E,4]!accent![=B,4E,4] | 
[V:1] A^ABc ^cd^de f^fg^g a^ab=c' & C2< x2 [=A2D2]< x2 [=d2A2]< x2 [ed] x3 | 
[V:2] [A,2A,,2] z2!accent![F,8F,,8][E,4E,,4] | 
[V:1] a^abc' ^c'd'^d'e' f'^f'g'^g' a'^a'b'=c'' & [e2c2]< x2 [=a2d2]< x2 [=d'2a2]< x2 [e'd'] x3 | 
[V:2] [A,,2A,,,2] z2!accent![F,,8F,,,8]E,,,4 | 
[V:1] a'^g'=g'^f' =f'e'_e'd' ^c'=c'b_b a^g=g^f & [e'2c'2]< x2 [d'2a2]< x2 [a2f2]< x2 [fd] x3 | 
[V:2] [A,,16A,,,16]- | 
[V:1] =fe_ed ^c=cB_B A^G=G^F =FE_ED & [d2A2]< x2 [A2F2]< x2 [F2D2]< x2 [DA,] x3 | 
[V:2] [A,,16A,,,16]- | 
[V:1] !fermata!^C16 |]  
[V:2] !accent![A,16E,16A,,16A,,,16] |]
